public/Icons/right.svg

<svg width="17" height="17" viewBox="0 0 17 17" fill="none" xmlns="http://www.w3.org/2000/svg">
<g id="17/ arrow / right">
<path id="Vector" d="M1 8.49977C1 8.13546 1.25651 7.83437 1.58931 7.78672L1.68183 7.78015L13.6675 7.78073L9.33745 3.22931C9.07061 2.94888 9.06968 2.49325 9.33537 2.21161C9.57692 1.95558 9.95566 1.93149 10.223 2.13991L10.2996 2.20942L15.7997 7.98944C15.8349 8.02641 15.8655 8.06641 15.8914 8.10866C15.8987 8.12138 15.9062 8.13439 15.9132 8.14766C15.9197 8.15903 15.9256 8.17085 15.9312 8.18279C15.9389 8.20016 15.9464 8.21811 15.9532 8.23643C15.9588 8.25056 15.9634 8.26429 15.9676 8.27814C15.9726 8.29531 15.9775 8.3136 15.9817 8.33218C15.9848 8.34515 15.9873 8.35763 15.9895 8.37016C15.9925 8.3888 15.9951 8.4081 15.9969 8.42762C15.9985 8.44251 15.9995 8.45726 16 8.47203C16.0001 8.48098 16.0003 8.49036 16.0003 8.49977L16 8.52765C15.9994 8.54177 15.9985 8.55589 15.9972 8.56996L16.0003 8.49977C16.0003 8.54519 15.9963 8.58961 15.9887 8.63269C15.9869 8.64298 15.9848 8.65354 15.9825 8.66406C15.9776 8.68573 15.972 8.70659 15.9656 8.72704C15.9624 8.7372 15.9588 8.74806 15.9548 8.75883C15.9468 8.78048 15.9382 8.80113 15.9287 8.82123C15.9242 8.83069 15.9193 8.84059 15.9141 8.85038C15.9056 8.86637 15.8968 8.88156 15.8875 8.89636C15.881 8.90684 15.8737 8.91775 15.8661 8.92848L15.8602 8.93677C15.8419 8.9621 15.8219 8.98611 15.8006 9.00863L15.7998 9.00929L10.2997 14.7903C10.0328 15.0707 9.60114 15.0698 9.33541 14.7882C9.09385 14.5322 9.07263 14.1323 9.27124 13.851L9.33741 13.7705L13.6657 9.21997L1.68183 9.2194C1.30527 9.2194 1 8.89721 1 8.49977Z" fill="#202020"/>
</g>
</svg>

<svg width="17" height="17" fill="none" xmlns="http://www.w3.org/2000/svg"><path d="M1 8.5c0-.365.257-.666.59-.713l.092-.007h11.986l-4.33-4.55a.748.748 0 0 1-.003-1.018.656.656 0 0 1 .888-.072l.077.07 5.5 5.78a.714.714 0 0 1 .091.119.49.49 0 0 1 .062.128.527.527 0 0 1 .029.095.632.632 0 0 1 .018.14v.056a.854.854 0 0 1-.003.042L16 8.5a.765.765 0 0 1-.134.428l-.006.009a.709.709 0 0 1-.06.072l-5.5 5.781a.657.657 0 0 1-.965-.002.75.75 0 0 1-.064-.937l.066-.08 4.329-4.551H1.682C1.305 9.22 1 8.896 1 8.5Z" fill="#202020"/></svg>
